X:1
T:Little Soldiers
T:Little Soldiers
T:James Hott Ruebush
T:Mary Brown Shuss, 1899
T:Public Domain Courtesy of the Cyber Hymnal™
C:James Hott Ruebush
Z:Public Domain
Z:Courtesy of the Cyber Hymnal™
%%score ( 1 2 ) ( 3 4 )
L:1/8
Q:1/4=85
M:2/4
K:C
V:1 treble 
V:2 treble 
V:3 bass 
V:4 bass 
V:1
 [Ec][Ec] [GB][GB] | [FA][FA] [EG]2 | [CA][CA] [CG][CE] | [B,D]2 z2 | [EG][EG] [CE][EG] | %5
w: 1.~Lit- tle sol- diers|in the field,|Fight- ing for the|Lord;|Christ, our cap- tain|
w: 2.~See the glor- ious|ban- ner wave,|Love, our mot- to|true;|All our sol- diers,|
w: 3.~Who- so- ev- er|will may come|And go with us|now;|Christ, our cap- tain,|
w: 4.~Soon we’ll reach the|shin- ing land,|See our Sav- ior’s|face;|For each one of|
 [FA][FA] [FA]2 | [FB][FB] [FA][FB] | [Ec]2 z2 ||"^Refrain" [Gd][Gd] [Gd]2 | [Ge][Ge] [Ge]2 | %10
w: and our shield,|Guards us with His|word.|||
w: good and brave,|Keep it full in|view.|||
w: shel- ters all|In the nar- row|way.|||
w: our great band|He’s pre- pared a|place.|||
 [Gd][^Fc] [FB][FA] | G2 z2 | [EG][EG] [CE][EG] | [FA][FA] [FA]2 | [FB][FB] [FA][FB] | [Ec]2 z2 |] %16
w: ||||||
w: ||||||
w: ||||||
w: ||||||
V:2
 x4 | x4 | x4 | x4 | x4 | x4 | x4 | x4 || x4 | x4 | x4 | G2 x2 | x4 | x4 | x4 | x4 |] %16
V:3
 [C,G,][C,G,] [C,C][C,C] | [C,C][C,C] [C,C]2 | [F,C][F,C] [E,C][C,G,] | G,2 z2 | %4
w: ~ ~ ~ ~|~ ~ ~|~ ~ ~ ~|~|
 [C,C][C,C] [C,G,][C,C] | [F,C][F,C] [F,C]2 | G,G, G,G, | [C,G,]2 z2 || [G,B,][G,B,] [G,B,]2 | %9
w: ~ ~ ~ ~|~ ~ ~|~ ~ ~ ~|~|Lit- tle friends,|
 [C,C][C,C] [C,C]2 | [D,B,][D,D] [D,D][D,C] | [G,B,]2 z2 | [C,C][C,C] [C,C][C,C] | %13
w: come a- long,|Join our youth- ful|band;|We are march- ing,|
 [F,C][F,C] [F,C]2 | G,G, G,G, | [C,G,]2 z2 |] %16
w: march- ing on|T’ward the hap- py|land.|
V:4
 x4 | x4 | x4 | G,2 x2 | x4 | x4 | G,G, G,G, | x4 || x4 | x4 | x4 | x4 | x4 | x4 | G,G, G,G, | %15
 x4 |] %16

